Collapse/img/logo.svg

<svg width="111" height="26" viewBox="0 0 111 26" fill="none" xmlns="http://www.w3.org/2000/svg">
<path fill-rule="evenodd" clip-rule="evenodd" d="M28.1667 14.4181C3.11885 27.6356 -7.35982 30.1145 5.5387 18.868C-5.19755 28.9975 3.73117 26.1683 27.3026 13L27.0833 13.5276L27.5485 13.6106L27.0833 14.065L27.9665 13.8934L27.5749 14.4772L28.1637 14.4237L28.1667 14.4181Z" fill="#9562EE"/>
<path fill-rule="evenodd" clip-rule="evenodd" d="M27.2976 18.0556C27.8439 17.8005 28.3044 17.3983 28.6249 16.8962C28.9455 16.394 29.1127 15.8129 29.1069 15.221C30.8466 14.8451 32.8331 14.2974 34.6318 13.4448C32.9663 16.2571 30.4681 17.4724 27.2976 18.0556ZM23.8333 12.1911C24.3331 11.8555 24.9207 11.6666 25.5267 11.6466C26.1327 11.6267 26.7319 11.7766 27.2537 12.0786C28.4543 10.7894 29.9321 9.38321 31.587 8.29529C28.2651 8.28789 25.9364 9.79766 23.8333 12.1911ZM28.9328 14.4365C34.974 13.1458 38.3298 10.8471 39 7.5404C35.7356 6.45494 32.0215 8.14678 27.8578 12.6159L28.9328 14.4365Z" fill="#9562EE"/>
<path fill-rule="evenodd" clip-rule="evenodd" d="M7.95504 19.5C9.723 18.9856 11.3861 18.1255 12.8597 16.9634C12.3342 15.7743 12.0699 14.473 12.0868 13.1585C12.0633 11.688 12.3977 10.2361 13.0573 8.94463C13.6863 7.72887 14.6252 6.72794 15.7653 6.05768C16.9756 5.35292 18.337 4.99616 19.7157 5.02244C22.0937 5.02244 24.0912 6.01541 25.7083 8.00134L29.25 4.51354C28.1148 3.06114 26.6735 1.91594 25.0439 1.17159C23.3754 0.390528 21.5076 0 19.4408 0C16.9885 0 14.7794 0.562805 12.8136 1.68841C10.8978 2.76861 9.29725 4.38979 8.18689 6.37476C7.06329 8.37232 6.50099 10.6304 6.5 13.149C6.5 15.489 6.98501 17.6028 7.95504 19.4905V19.5Z" fill="#9562EE"/>
<path fill-rule="evenodd" clip-rule="evenodd" d="M16.2322 20.5371C14.2609 21.5145 12.4612 22.3671 10.8333 23.0949C11.4429 23.5923 12.098 24.0306 12.7898 24.4037C14.7562 25.4669 16.9563 25.999 19.3903 26C21.4599 26 23.3364 25.6336 25.0199 24.9008C26.6653 24.1966 28.1166 23.1022 29.25 21.7112L25.7019 18.4167C24.0879 20.3135 22.0867 21.2619 19.6985 21.2619C18.5024 21.2787 17.3174 21.0302 16.2278 20.5341L16.2322 20.5371Z" fill="#9562EE"/>
<path d="M47.8253 13.072C47.8253 12.1013 48.0353 11.238 48.4553 10.482C48.8753 9.71667 49.4586 9.124 50.2053 8.704C50.9613 8.27467 51.8153 8.06 52.7673 8.06C53.9339 8.06 54.9326 8.368 55.7633 8.984C56.5939 9.6 57.1493 10.44 57.4293 11.504H54.7973C54.6013 11.0933 54.3213 10.7807 53.9573 10.566C53.6026 10.3513 53.1966 10.244 52.7393 10.244C52.0019 10.244 51.4046 10.5007 50.9473 11.014C50.4899 11.5273 50.2613 12.2133 50.2613 13.072C50.2613 13.9307 50.4899 14.6167 50.9473 15.13C51.4046 15.6433 52.0019 15.9 52.7393 15.9C53.1966 15.9 53.6026 15.7927 53.9573 15.578C54.3213 15.3633 54.6013 15.0507 54.7973 14.64H57.4293C57.1493 15.704 56.5939 16.544 55.7633 17.16C54.9326 17.7667 53.9339 18.07 52.7673 18.07C51.8153 18.07 50.9613 17.86 50.2053 17.44C49.4586 17.0107 48.8753 16.418 48.4553 15.662C48.0353 14.906 47.8253 14.0427 47.8253 13.072ZM62.4513 18.112C61.686 18.112 60.9953 17.9487 60.3793 17.622C59.7727 17.2953 59.292 16.8287 58.9373 16.222C58.592 15.6153 58.4193 14.906 58.4193 14.094C58.4193 13.2913 58.5967 12.5867 58.9513 11.98C59.306 11.364 59.7913 10.8927 60.4073 10.566C61.0233 10.2393 61.714 10.076 62.4793 10.076C63.2447 10.076 63.9353 10.2393 64.5513 10.566C65.1673 10.8927 65.6527 11.364 66.0073 11.98C66.362 12.5867 66.5393 13.2913 66.5393 14.094C66.5393 14.8967 66.3573 15.606 65.9933 16.222C65.6387 16.8287 65.1487 17.2953 64.5233 17.622C63.9073 17.9487 63.2167 18.112 62.4513 18.112ZM62.4513 16.04C62.9087 16.04 63.296 15.872 63.6133 15.536C63.94 15.2 64.1033 14.7193 64.1033 14.094C64.1033 13.4687 63.9447 12.988 63.6273 12.652C63.3193 12.316 62.9367 12.148 62.4793 12.148C62.0127 12.148 61.6253 12.316 61.3173 12.652C61.0093 12.9787 60.8553 13.4593 60.8553 14.094C60.8553 14.7193 61.0047 15.2 61.3033 15.536C61.6113 15.872 61.994 16.04 62.4513 16.04ZM70.2034 7.64V18H67.8094V7.64H70.2034ZM74.3323 7.64V18H71.9383V7.64H74.3323ZM75.5912 14.08C75.5912 13.2773 75.7406 12.5727 76.0392 11.966C76.3472 11.3593 76.7626 10.8927 77.2852 10.566C77.8079 10.2393 78.3912 10.076 79.0352 10.076C79.5859 10.076 80.0666 10.188 80.4772 10.412C80.8972 10.636 81.2192 10.93 81.4432 11.294V10.188H83.8372V18H81.4432V16.894C81.2099 17.258 80.8832 17.552 80.4632 17.776C80.0526 18 79.5719 18.112 79.0212 18.112C78.3866 18.112 77.8079 17.9487 77.2852 17.622C76.7626 17.286 76.3472 16.8147 76.0392 16.208C75.7406 15.592 75.5912 14.8827 75.5912 14.08ZM81.4432 14.094C81.4432 13.4967 81.2752 13.0253 80.9392 12.68C80.6126 12.3347 80.2112 12.162 79.7352 12.162C79.2592 12.162 78.8532 12.3347 78.5172 12.68C78.1906 13.016 78.0272 13.4827 78.0272 14.08C78.0272 14.6773 78.1906 15.1533 78.5172 15.508C78.8532 15.8533 79.2592 16.026 79.7352 16.026C80.2112 16.026 80.6126 15.8533 80.9392 15.508C81.2752 15.1627 81.4432 14.6913 81.4432 14.094ZM87.9632 11.294C88.1965 10.93 88.5185 10.636 88.9292 10.412C89.3398 10.188 89.8205 10.076 90.3712 10.076C91.0152 10.076 91.5985 10.2393 92.1212 10.566C92.6438 10.8927 93.0545 11.3593 93.3532 11.966C93.6612 12.5727 93.8152 13.2773 93.8152 14.08C93.8152 14.8827 93.6612 15.592 93.3532 16.208C93.0545 16.8147 92.6438 17.286 92.1212 17.622C91.5985 17.9487 91.0152 18.112 90.3712 18.112C89.8298 18.112 89.3492 18 88.9292 17.776C88.5185 17.552 88.1965 17.2627 87.9632 16.908V21.724H85.5692V10.188H87.9632V11.294ZM91.3792 14.08C91.3792 13.4827 91.2112 13.016 90.8752 12.68C90.5485 12.3347 90.1425 12.162 89.6572 12.162C89.1812 12.162 88.7752 12.3347 88.4392 12.68C88.1125 13.0253 87.9492 13.4967 87.9492 14.094C87.9492 14.6913 88.1125 15.1627 88.4392 15.508C88.7752 15.8533 89.1812 16.026 89.6572 16.026C90.1332 16.026 90.5392 15.8533 90.8752 15.508C91.2112 15.1533 91.3792 14.6773 91.3792 14.08ZM98.2491 18.112C97.5678 18.112 96.9611 17.9953 96.4291 17.762C95.8971 17.5287 95.4771 17.2113 95.1691 16.81C94.8611 16.3993 94.6885 15.942 94.6511 15.438H97.0171C97.0451 15.7087 97.1711 15.928 97.3951 16.096C97.6191 16.264 97.8945 16.348 98.2211 16.348C98.5198 16.348 98.7485 16.292 98.9071 16.18C99.0751 16.0587 99.1591 15.9047 99.1591 15.718C99.1591 15.494 99.0425 15.3307 98.8091 15.228C98.5758 15.116 98.1978 14.9947 97.6751 14.864C97.1151 14.7333 96.6485 14.598 96.2751 14.458C95.9018 14.3087 95.5798 14.08 95.3091 13.772C95.0385 13.4547 94.9031 13.03 94.9031 12.498C94.9031 12.05 95.0245 11.644 95.2671 11.28C95.5191 10.9067 95.8831 10.6127 96.3591 10.398C96.8445 10.1833 97.4185 10.076 98.0811 10.076C99.0611 10.076 99.8311 10.3187 100.391 10.804C100.96 11.2893 101.287 11.9333 101.371 12.736H99.1591C99.1218 12.4653 99.0005 12.2507 98.7951 12.092C98.5991 11.9333 98.3378 11.854 98.0111 11.854C97.7311 11.854 97.5165 11.91 97.3671 12.022C97.2178 12.1247 97.1431 12.2693 97.1431 12.456C97.1431 12.68 97.2598 12.848 97.4931 12.96C97.7358 13.072 98.1091 13.184 98.6131 13.296C99.1918 13.4453 99.6631 13.5947 100.027 13.744C100.391 13.884 100.708 14.1173 100.979 14.444C101.259 14.7613 101.404 15.1907 101.413 15.732C101.413 16.1893 101.282 16.6 101.021 16.964C100.769 17.3187 100.4 17.5987 99.9151 17.804C99.4391 18.0093 98.8838 18.112 98.2491 18.112ZM110.242 13.968C110.242 14.192 110.228 14.4253 110.2 14.668H104.782C104.819 15.1533 104.973 15.5267 105.244 15.788C105.524 16.04 105.864 16.166 106.266 16.166C106.863 16.166 107.278 15.914 107.512 15.41H110.06C109.929 15.9233 109.691 16.3853 109.346 16.796C109.01 17.2067 108.585 17.5287 108.072 17.762C107.558 17.9953 106.984 18.112 106.35 18.112C105.584 18.112 104.903 17.9487 104.306 17.622C103.708 17.2953 103.242 16.8287 102.906 16.222C102.57 15.6153 102.402 14.906 102.402 14.094C102.402 13.282 102.565 12.5727 102.892 11.966C103.228 11.3593 103.694 10.8927 104.292 10.566C104.889 10.2393 105.575 10.076 106.35 10.076C107.106 10.076 107.778 10.2347 108.366 10.552C108.954 10.8693 109.411 11.322 109.738 11.91C110.074 12.498 110.242 13.184 110.242 13.968ZM107.792 13.338C107.792 12.9273 107.652 12.6007 107.372 12.358C107.092 12.1153 106.742 11.994 106.322 11.994C105.92 11.994 105.58 12.1107 105.3 12.344C105.029 12.5773 104.861 12.9087 104.796 13.338H107.792Z" fill="#9562EE"/>
</svg>

<svg width="111" height="26" fill="none" xmlns="http://www.w3.org/2000/svg"><path fill-rule="evenodd" clip-rule="evenodd" d="M28.167 14.418C3.119 27.636-7.36 30.115 5.539 18.868-5.198 28.998 3.73 26.168 27.303 13l-.22.528.466.083-.466.454.884-.172-.392.584.589-.053.003-.006zm-.869 3.638a3.157 3.157 0 001.327-1.16c.32-.502.488-1.083.482-1.675 1.74-.376 3.726-.924 5.525-1.776-1.666 2.812-4.164 4.027-7.334 4.61zm-3.465-5.865a3.237 3.237 0 013.42-.113c1.201-1.289 2.68-2.695 4.334-3.783-3.322-.007-5.65 1.503-7.754 3.896zm5.1 2.245C34.974 13.146 38.33 10.848 39 7.54c-3.264-1.085-6.978.607-11.142 5.076l1.075 1.82z" fill="#9562EE"/><path fill-rule="evenodd" clip-rule="evenodd" d="M7.955 19.5a14.437 14.437 0 004.905-2.537 9.134 9.134 0 01-.773-3.805 8.962 8.962 0 01.97-4.213 7.14 7.14 0 012.708-2.887 7.554 7.554 0 013.95-1.036c2.379 0 4.376.993 5.993 2.98l3.542-3.488a11.322 11.322 0 00-4.206-3.342C23.375.39 21.508 0 19.44 0c-2.453 0-4.662.563-6.627 1.688-1.916 1.08-3.517 2.702-4.627 4.687C7.063 8.372 6.5 10.63 6.5 13.149c0 2.34.485 4.454 1.455 6.342v.009zm8.277 1.037c-1.971.978-3.77 1.83-5.399 2.558.61.497 1.265.936 1.957 1.309 1.966 1.063 4.166 1.595 6.6 1.596 2.07 0 3.946-.366 5.63-1.1a11.082 11.082 0 004.23-3.189l-3.548-3.294c-1.614 1.896-3.615 2.845-6.004 2.845a8.1 8.1 0 01-3.47-.728l.004.003z" fill="#9562EE"/><path d="M47.825 13.072c0-.97.21-1.834.63-2.59a4.456 4.456 0 011.75-1.778c.756-.43 1.61-.644 2.562-.644 1.167 0 2.166.308 2.996.924.83.616 1.386 1.456 1.666 2.52h-2.632a2.112 2.112 0 00-.84-.938 2.305 2.305 0 00-1.218-.322c-.737 0-1.334.257-1.792.77-.457.513-.686 1.2-.686 2.058 0 .859.229 1.545.686 2.058.458.513 1.055.77 1.792.77a2.3 2.3 0 001.218-.322c.364-.215.644-.527.84-.938h2.632c-.28 1.064-.835 1.904-1.666 2.52-.83.607-1.83.91-2.996.91-.952 0-1.806-.21-2.562-.63a4.577 4.577 0 01-1.75-1.778c-.42-.756-.63-1.62-.63-2.59zm14.626 5.04c-.765 0-1.456-.163-2.072-.49a3.648 3.648 0 01-1.442-1.4c-.345-.607-.518-1.316-.518-2.128 0-.803.178-1.507.532-2.114a3.598 3.598 0 011.456-1.414c.616-.327 1.307-.49 2.072-.49.766 0 1.456.163 2.072.49a3.597 3.597 0 011.456 1.414c.355.607.532 1.311.532 2.114 0 .803-.182 1.512-.546 2.128a3.6 3.6 0 01-1.47 1.4c-.616.327-1.306.49-2.072.49zm0-2.072c.458 0 .845-.168 1.162-.504.327-.336.49-.817.49-1.442s-.158-1.106-.476-1.442a1.494 1.494 0 00-1.148-.504 1.51 1.51 0 00-1.162.504c-.308.327-.462.807-.462 1.442 0 .625.15 1.106.448 1.442.308.336.691.504 1.148.504zm7.752-8.4V18H67.81V7.64h2.394zm4.13 0V18h-2.395V7.64h2.394zm1.258 6.44c0-.803.15-1.507.448-2.114.308-.607.724-1.073 1.246-1.4a3.234 3.234 0 011.75-.49c.55 0 1.032.112 1.442.336.42.224.742.518.966.882v-1.106h2.394V18h-2.394v-1.106a2.57 2.57 0 01-.98.882c-.41.224-.891.336-1.442.336a3.21 3.21 0 01-1.736-.49c-.522-.336-.938-.807-1.246-1.414-.298-.616-.448-1.325-.448-2.128zm5.852.014c0-.597-.168-1.069-.504-1.414a1.593 1.593 0 00-1.204-.518c-.476 0-.882.173-1.218.518-.326.336-.49.803-.49 1.4 0 .597.164 1.073.49 1.428.336.345.742.518 1.218.518s.878-.173 1.204-.518c.336-.345.504-.817.504-1.414zm6.52-2.8a2.61 2.61 0 01.966-.882c.41-.224.891-.336 1.442-.336a3.23 3.23 0 011.75.49c.523.327.934.793 1.232 1.4.308.607.462 1.311.462 2.114 0 .803-.154 1.512-.462 2.128a3.443 3.443 0 01-1.232 1.414 3.234 3.234 0 01-1.75.49c-.541 0-1.022-.112-1.442-.336a2.644 2.644 0 01-.966-.868v4.816H85.57V10.188h2.394v1.106zm3.416 2.786c0-.597-.168-1.064-.504-1.4a1.609 1.609 0 00-1.218-.518c-.476 0-.882.173-1.218.518-.326.345-.49.817-.49 1.414s.163 1.069.49 1.414c.336.345.742.518 1.218.518s.882-.173 1.218-.518c.336-.355.504-.83.504-1.428zm6.87 4.032c-.681 0-1.288-.117-1.82-.35-.532-.233-.952-.55-1.26-.952a2.56 2.56 0 01-.518-1.372h2.366a.91.91 0 00.378.658c.224.168.5.252.826.252.299 0 .528-.056.686-.168a.55.55 0 00.252-.462c0-.224-.117-.387-.35-.49-.233-.112-.611-.233-1.134-.364a11.45 11.45 0 01-1.4-.406 2.514 2.514 0 01-.966-.686c-.27-.317-.406-.742-.406-1.274 0-.448.121-.854.364-1.218.252-.373.616-.667 1.092-.882.486-.215 1.06-.322 1.722-.322.98 0 1.75.243 2.31.728.569.485.896 1.13.98 1.932h-2.212a.943.943 0 00-.364-.644c-.196-.159-.457-.238-.784-.238-.28 0-.495.056-.644.168a.497.497 0 00-.224.434c0 .224.117.392.35.504.243.112.616.224 1.12.336.579.15 1.05.299 1.414.448a2.3 2.3 0 01.952.7c.28.317.425.747.434 1.288 0 .457-.131.868-.392 1.232-.252.355-.621.635-1.106.84-.476.205-1.031.308-1.666.308zm11.993-4.144c0 .224-.014.457-.042.7h-5.418c.037.485.191.859.462 1.12.28.252.62.378 1.022.378.597 0 1.012-.252 1.246-.756h2.548a3.46 3.46 0 01-.714 1.386c-.336.41-.761.733-1.274.966a4.12 4.12 0 01-1.722.35c-.766 0-1.447-.163-2.044-.49a3.481 3.481 0 01-1.4-1.4c-.336-.607-.504-1.316-.504-2.128s.163-1.521.49-2.128a3.481 3.481 0 011.4-1.4c.597-.327 1.283-.49 2.058-.49.756 0 1.428.159 2.016.476.588.317 1.045.77 1.372 1.358.336.588.504 1.274.504 2.058zm-2.45-.63c0-.41-.14-.737-.42-.98-.28-.243-.63-.364-1.05-.364-.402 0-.742.117-1.022.35-.271.233-.439.565-.504.994h2.996z" fill="#9562EE"/></svg>
